img/iconmonstr-search-thin.svg

<svg width="24" height="24" xmlns="http://www.w3.org/2000/svg" fill-rule="evenodd" clip-rule="evenodd"><path d="M15.853 16.56c-1.683 1.517-3.911 2.44-6.353 2.44-5.243 0-9.5-4.257-9.5-9.5s4.257-9.5 9.5-9.5 9.5 4.257 9.5 9.5c0 2.442-.923 4.67-2.44 6.353l7.44 7.44-.707.707-7.44-7.44zm-6.353-15.56c4.691 0 8.5 3.809 8.5 8.5s-3.809 8.5-8.5 8.5-8.5-3.809-8.5-8.5 3.809-8.5 8.5-8.5z"/></svg>

<svg width="24" height="24" viewBox="0 0 24 24" fill="none" xmlns="http://www.w3.org/2000/svg">
<g clip-path="url(#clip0_802_18)">
<path fill-rule="evenodd" clip-rule="evenodd" d="M15.853 16.56C14.17 18.077 11.942 19 9.5 19C4.257 19 0 14.743 0 9.5C0 4.257 4.257 0 9.5 0C14.743 0 19 4.257 19 9.5C19 11.942 18.077 14.17 16.56 15.853L24 23.293L23.293 24L15.853 16.56ZM9.5 1C14.191 1 18 4.809 18 9.5C18 14.191 14.191 18 9.5 18C4.809 18 1 14.191 1 9.5C1 4.809 4.809 1 9.5 1Z" fill="#E6E6E6"/>
</g>
<defs>
<clipPath id="clip0_802_18">
<rect width="24" height="24" fill="white"/>
</clipPath>
</defs>
</svg>
